X:1
T:VI. The Infinite Shining Heavens
T:VI. The Infinite Shining Heavens
T:Songs of travel
T:Ralph Vaughan Williams
T:Robert Louis Stevenson
%%score 1 { ( 2 4 ) | ( 3 5 ) }
L:1/8
Q:1/4=100
M:3/2
K:F
V:1 treble nm="Voice"
V:2 treble nm="Piano"
V:4 treble 
V:3 treble 
V:5 treble 
V:1
"^Andante" z12 | z4 z4!p! z2 (A2 | (3c2 B2 A2 G2 A2 F4) | A4- (3A2 G2 F2 E4- | (3E2 E2 F2 C8 | %5
w: |The|in- fi- nite shin- ing heavens|Rose, * and I saw|_ in the night|
[M:2/2] (C4 (3D2!<(! D2 D2!<)! | B6!>(! B2!>)! | A4) (d4- | d4 c4 | (F4 G4) | B4 A4 | E4) z4 | z8 | %13
w: Un- count- a ble|an- gel|stars Shower-|* ing|sor- *|row and|light.||
 z4 z2 (e2 | e4 B2) z2 | (A4 G2 F2 | E4) z4 | (A6 A2 | A2!<(! A4!<)! A2 |!pp! !tenuto!B8) | %20
w: I|saw them|dis- tant as|heaven|Dumb and|shin- ing and|dead,|
 z4 (B2 B2 | _A6 G2 | _E4 E2 E2) | c8- | c8- |[Q:1/4=70]"^largamente"!<(! c2 (c2!<)! (3_e2 d2 c2 | %26
w: And the|i- dle|stars of the|night|_|* Were dea- rer to|
[Q:1/4=100]"^a tempo"!>(! B6 _E2!>)! | _A8) | z8 | z8 | z8 | z8 | z8 | %33
w: me than|bread.||||||
[M:3/2] (A4- (3A2 A2!>(! A2!>)!!p! (3c2 B2 A2 | G4 A4) z2 (F2 | (3(A2) G2) F2 E4- (3E2 E2 F2 | %36
w: Night _ af- ter night in my|sor- row The|stars _ looked o- * ver the|
[M:2/2] C4 z4 |!pp![Q:1/4=100]"^animando" z2[Q:1/4=100]"^animando" _d2 d4- | d2 (_d2 (3d2 d2 d2 | %39
w: sea,|Til lo!|_ I looked in the|
[Q:1/4=100]"^animando" _A4- (3A2 A2 A2 | _A4!<(! A2!<)! A2 | =A6) z2 | z4!<(! G4!<)! | %43
w: dusk _ And a|star had come|down|to|
!f!"^dim." d8- |!pp! d8 | z8 | !fermata!z8 |] %47
w: me.|_|||
V:2
!pp!"^molto legato" (a4 [ga]4 [fa]4 | !arpeggio![efa]4 !arpeggio![dfa]4 !arpeggio![cdfa]4) | %2
 !arpeggio![Bdfa]4 !arpeggio![Bceg]4 !arpeggio![Acdf]4 | %3
 !arpeggio![ABdf]4 !arpeggio![GBdf]4 !arpeggio![GBd]4 | %4
 !arpeggio![FAc]4 !arpeggio![GBc]4 !arpeggio![FBd]4 |[M:2/2] [GBc]4 [FBd]4 |!<(! [df]4 [eg]4!<)! | %7
 [Acea]4 [dfa]4 | [deg]4 !arpeggio![cdfa]4 | !arpeggio![Bdf]4 !arpeggio![Bdg]4 | %10
 !arpeggio![Bde]4 !arpeggio![Acdf]4 |!pp! ([^CA]4 [DB]4 | [^CA]4 [DB]4) |!<(! ([^CA]4 [DB]4!<)! | %14
!>(! [E=c]4!>)! [DB]4) | ([^cea]4 [dfb]4 | [^cea]4 [dfb]4 | [^cea]4 [dfb]4 | %18
!<(! [egc']4)!<)! [fad']4 |!pp! ([_e_gb_e']4 [=gbd']4) | ([_e_gb_e']4 [=gbd']4) | %21
 ([_e_ac']4 [egb]4) | ([_e_ac']4 [egb]4) | ([cf_a]4 [c_eg]4) | ([cf_a]4 [c_eg]4-) | %25
!<(! [ceg]4!<)!!f!"_dim." [c_egc']4 | !arpeggio![Bdf]4 [B_eg]4 | !arpeggio![c_e]4 [Bd]4 | %28
 !arpeggio![Bd]4 [_Ac]4 | !arpeggio![_Ac]4 [GB]4 | !arpeggio![GB]4 [F^G=B]4 |!p! (A4 G4 | F4 E4) | %33
[M:3/2] [DFA]8 [DFA]4 | ([EG]4 [DFA]4 [B,DF]4 | [B,DF]4 [B,DE]6 [A,DF]2 | %36
[M:2/2] [G,B,C]4 [G,B,D]4) |!pp! !arpeggio![FB_df]4 !arpeggio![_GB_eg]4 | %38
 !arpeggio![FB_df]4 !arpeggio![FB_eg]4 | !arpeggio![_A_d_f_a]4 !arpeggio![c=fac']4 | %40
 !arpeggio![_A_d_f_a]4 !arpeggio![c=fac']4 | ([^F=A^c]4 [A=c=d]4 |!<(! [G=Be]4 [_Beg]4!<)! | %43
!f! [Adfa]4!>(! [=Bdf=b]4 | [df=bd']4!>)! [fbd'f']4) | x4 Ad^fa | !fermata![ad'^f'a']8 |] %47
V:3
 (A4 [GA]4 [FA]4 | !arpeggio![EFA]4 !arpeggio![DFA]4 !arpeggio![CDFA]4) | %2
 !arpeggio![B,DFA]4 !arpeggio![B,CEG]4 !arpeggio![A,CDF]4 | %3
[K:bass] !arpeggio![A,B,DF]4 !arpeggio![G,B,DF]4 !arpeggio![G,B,DE-]4 | %4
 !arpeggio![F,A,C]4 !arpeggio![E,G,B,C]4 !arpeggio![D,F,B,D]4 |[M:2/2] [E,G,B,C]4 [D,F,B,D]4 | %6
 !arpeggio![DF]4 [EG]4 | [F,A,F]4[K:treble] [FA]4 | [EG]4 !arpeggio![DF]4 | %9
[K:bass] !arpeggio![A,DF]4 !arpeggio![G,DE]4 | !arpeggio![G,B,D]4 !arpeggio![F,A,CD]4 | %11
 ([E,G,]4 [F,A,]4 | [E,G,]4 [F,A,]4) | ([E,G,]4 [F,A,]4 | [G,B,]4 [F,A,]4) | ([E,G,^C]4 [F,A,D]4 | %16
 [E,G,^C]4 [E,G,D]4 | [E,G,^C]4 [E,G,D]4) | [G,B,E]4 [A,DF]4 |[K:treble] ([B,_E_GB]4 [=GBd]4) | %20
 ([_E_GB]4 [=GBd]4) | ([_Ac]4 [_EGB]4) | ([_Ac]4 [_EGB]4) | ([F_A]4 [C_EG]4) | ([F_A]4 [_EG]4-) | %25
 [EG]4 [_A,C_EG]4 | !arpeggio![_A,B,DF]4 [G,B,D_E]4 |[K:bass] !arpeggio![G,C_E]4 [F,B,D]4 | %28
 !arpeggio![F,B,D]4 [_E,_A,C]4 | !arpeggio![_E,_A,C]4 [D,G,B,]4 | !arpeggio![G,B,]4 [F,^G,=B,]4 | %31
 A,8- | A,8 |[M:3/2] (A,4 C4 B,4) | (([B,C]4 [A,C]4) A,4 | G,4 G,4 F,4 |[M:2/2] E,4 D,4) | %37
 !arpeggio!_D4 !arpeggio![_E,B,D]4 | !arpeggio!_D4 !arpeggio![_E,B,D]4 | %39
"_sempre" !arpeggio![_A,_D_F]4 !arpeggio![=F,C=D]4 | !arpeggio![_A,_D_F]4 !arpeggio![=F,C=D]4 | %41
 (^D4 [=D^F]4 | [^CE]4 [=CEG]4 | [=B,DF]4 [A,DF]4 | [^G,=B,DF]4 [=G,B,DF]4) | %45
!pp! D,A,[I:staff -1]D^F[I:staff +1] x4 |[K:treble] !fermata![Ad^f]8 |] %47
V:4
 x12 | x12 | x12 | x8 !arpeggio!e4- | !arpeggio!e2 f2 x8 |[M:2/2] x8 | B8 | x4 d'4- | %8
 d'4 !arpeggio!c'4 | x8 | x8 | x8 | x8 | x8 | x8 | x8 | x8 | x8 | x8 | x8 | x8 | x8 | x8 | x8 | %24
 x8 | x8 | !arpeggio!b8 | _a8 | g8 | f8 | _e6 d2 | A8- | [FA]8 |[M:3/2] x12 | x12 | x12 | %36
[M:2/2] x8 | x8 | x8 | x8 | x8 | x8 | x8 | x8 | x8 | x8 | x8 |] %47
V:5
 x12 | x12 | x12 |[K:bass] x12 | !arpeggio!E2 D2 x8 |[M:2/2] x8 | !arpeggio![C,B,]8 | %7
 x4[K:treble] B,4- | B,4 !arpeggio!A,4 |[K:bass] x8 | x8 | x8 | x8 | x8 | x8 | x8 | x8 | x8 | x8 | %19
[K:treble] x8 | x8 | x8 | x8 | x8 | x4 C4 | C4 x4 | x8 |[K:bass] x8 | x8 | x8 | D,8 | x8 | x8 | %33
[M:3/2] x12 | x12 | x12 |[M:2/2] x8 | x8 | x8 | x8 | x8 | x8 | x8 | x8 | x8 | x8 |[K:treble] x8 |] %47

